svg/u1f697.svg

<svg viewBox="0 0 128 128" xmlns="http://www.w3.org/2000/svg">
  <path d="M20.85,97c-0.41,0.14-17.5,5.37-17.5,5.37s-1.15-5.31-0.1-10.71c1.11-5.72,2.56-9.12,2.56-9.12 s1.58-3.85,6.47-7.01c4.11-2.66,13.53-5.48,15.7-6.86c1.44-0.91,3.87-2.55,7.56-6.61s6.61-8.31,13.13-11.33s9.92-2.55,17-3.02 c7.08-0.47,14.73-0.28,20.5,0s10.29,2.93,11.81,3.87c1.51,0.94,5.29,4.16,7.27,6.23c1.98,2.08,4.34,5.19,6.14,6.71 c1.79,1.51,4.63,3.31,7.08,4.72c2.46,1.42,3.97,2.64,4.44,3.87c0.47,1.23,0.46,1.29,0.46,1.29l-1.69,17.5L20.85,97z" fill="#F92612"/>
  <path d="M3.35,102.37c0,0,2.59-4.68,8.72-9.58c5.22-4.17,9.92-6.49,17.22-7.56 c6.43-0.94,19.32-0.64,40.81-0.54c21.49,0.09,36.78,0.12,38.74,0.03c1.96-0.09,4.56-1.77,7.65-3.73c3.08-1.96,4.31,0.92,4.31,0.92 l3.46,10.18c0,0,0.13,11.74-0.09,14.58c-0.15,1.88-2.71,5.14-4.02,5.7s-24.95,0.93-31.95,0.93c-7.01,0-66.76-0.18-72.78-0.65 c-2.8-0.22-6.54-1.68-8.32-3.46C3.82,105.92,3.35,102.37,3.35,102.37z" fill="#D70617"/>
  <path d="M7.32,82.52c0,0,7.99-1,8.56-0.6c0.71,0.5-2.43,5.91-3.26,7c-0.41,0.54-7.45,3.94-7.45,3.94 l0.02-4.89L7.32,82.52z" fill="#FFFEFF"/>
  <path d="M2.91,94.06l3.1-1.62c0,0,0.55-3.09,0.89-4.56c0.55-2.43,1.9-5.56,1.9-5.56l-3.03,0.28 c0,0-0.99,1.69-1.9,5.48C2.9,92.17,2.91,94.06,2.91,94.06z" fill="#D5CCC2"/>
  <path d="M32,76.59c0.22,2.16,2.61,2.11,9.44,2.11c5.45,0,60.4,0.51,61.71-0.07c0.64-0.28,1.52-1.47,2.61-3.05 c1.64-2.36,2.4-3.48,2.25-4.36c-0.29-1.72-9.22-12.99-14.81-16.33c-3.87-2.31-12.2-2.32-19.09-2.4c-6.24-0.07-18.08-0.22-23.74,3.41 C41.94,61.31,31.71,73.76,32,76.59z" fill="#546D81"/>
  <path d="M39.41,74.42c0.44,0.55,9.13,0.39,17.21,0.36c8.27-0.03,16.05,0.37,16.31,0 c0.12-0.17,0.53-17.69,0.19-18c-0.25-0.23-2.39-0.07-5.11-0.04c-4.54,0.05-11.15,0.76-15.31,3.09 C45.55,63.82,38.54,73.33,39.41,74.42z" fill="#AFE3FB"/>
  <path d="M78.1,57.1c-0.07,0.13-0.2,17.82-0.09,17.89c0.58,0.36,22.73,0.08,22.95-0.21s2.61-2.61,2.54-3.19 s-7.54-9.81-12.67-12.94C88.58,57.26,78.22,56.9,78.1,57.1z" fill="#AFE3FB"/>
  <path d="M37.25,81.01c0.65,1.72,4.1,2.47,6.32,2.27c3.28-0.3,5.25-2.21,5.6-6.14 c0.41-4.51-1.65-6.58-3.08-6.85c-1.52-0.29-8.9,7.56-8.9,7.56S36.71,79.58,37.25,81.01z" fill="#AF0F21"/>
  <path d="M41.96,80.05c2.43-0.26,4.17-2.5,5.01-4.29c0.83-1.79,1.45-4.49-0.42-5.31 c-2.32-1.01-4.41,0.18-5.84,1.79c-1.26,1.42-3.7,4.65-3.52,5.6C37.37,78.8,38.62,80.41,41.96,80.05z" fill="#F92612"/>
  <path d="M17.81,110.37c0.09,5.52,4.49,13.46,14.07,13.52s14.55-7.28,14.25-14.8 c-0.31-7.64-6.25-13.04-14.8-12.8C23.33,96.53,17.69,102.73,17.81,110.37z" fill="#4E433D"/>
  <path d="M24.48,109.91c0.05,2.91,2.41,7.1,7.56,7.13c5.15,0.03,7.64-3.62,7.48-7.58 c-0.17-4.03-3.46-7.03-7.78-6.97C27.44,102.56,24.41,105.88,24.48,109.91z" fill="#C8C8C8"/>
  <path d="M88.53,110.83c0.09,5.48,4.39,13.36,13.77,13.42s14.24-7.22,13.95-14.68 c-0.3-7.59-6.11-12.94-14.48-12.7C93.94,97.1,88.41,103.25,88.53,110.83z" fill="#4E433D"/>
  <path d="M94.79,110.4c0.05,2.91,2.41,7.1,7.56,7.13s7.64-3.62,7.48-7.58c-0.17-4.03-3.46-7.03-7.78-6.97 C97.76,103.05,94.73,106.37,94.79,110.4z" fill="#C8C8C8"/>
  <path d="M121.26,76.17c-0.29,0.41-5.31,4.55-5.31,5.19s5.72,8.91,5.72,8.91l1.34,0.81 c0,0,0.64-10.48,0.64-10.71C123.65,80.16,121.26,76.17,121.26,76.17z" fill="#FFFEFF"/>
  <path d="M124.27,93.63c0,0,0.47-7.53,0.41-11.6c-0.06-4.43-1.32-7.68-1.32-7.68l-2.12,1.85 c0,0,0.72,3.92,0.72,6.49s-0.29,7.58-0.29,7.58L124.27,93.63z" fill="#D5CCC2"/>
</svg>

<svg viewBox="0 0 128 128" xmlns="http://www.w3.org/2000/svg">
  <defs/>
  <path d="M20.85,97 C20.44,97.14 3.35,102.37 3.35,102.37 C3.35,102.37 2.2,97.06 3.25,91.66 C4.36,85.94 5.81,82.54 5.81,82.54 C5.81,82.54 7.39,78.69 12.28,75.53 C16.39,72.87 25.81,70.05 27.98,68.67 C29.42,67.76 31.85,66.12 35.54,62.06 C39.23,58 42.15,53.75 48.67,50.73 C55.19,47.71 58.59,48.18 65.67,47.71 C72.75,47.24 80.4,47.43 86.17,47.71 C91.94,47.99 96.46,50.64 97.98,51.58 C99.49,52.52 103.27,55.74 105.25,57.81 C107.23,59.89 109.59,63 111.39,64.52 C113.18,66.03 116.02,67.83 118.47,69.24 C120.93,70.66 122.44,71.88 122.91,73.11 C123.38,74.34 123.37,74.4 123.37,74.4 L121.68,91.9 L20.85,97 Z" fill="#F92612"/>
  <path d="M3.35,102.37 C3.35,102.37 5.94,97.69 12.07,92.79 C17.29,88.62 21.99,86.3 29.29,85.23 C35.72,84.29 48.61,84.59 70.1,84.69 C91.59,84.78 106.88,84.81 108.84,84.72 C110.8,84.63 113.4,82.95 116.49,80.99 C119.57,79.03 120.8,81.91 120.8,81.91 L124.26,92.09 C124.26,92.09 124.39,103.83 124.17,106.67 C124.02,108.55 121.46,111.81 120.15,112.37 C118.84,112.93 95.2,113.3 88.2,113.3 C81.19,113.3 21.44,113.12 15.42,112.65 C12.62,112.43 8.88,110.97 7.1,109.19 C3.82,105.92 3.35,102.37 3.35,102.37 Z" fill="#D70617"/>
  <path d="M7.32,82.52 C7.32,82.52 15.31,81.52 15.88,81.92 C16.59,82.42 13.45,87.83 12.62,88.92 C12.21,89.46 5.17,92.86 5.17,92.86 L5.19,87.97 L7.32,82.52 Z" fill="#FFFEFF"/>
  <path d="M2.91,94.06 L6.01,92.44 C6.01,92.44 6.56,89.35 6.9,87.88 C7.45,85.45 8.8,82.32 8.8,82.32 L5.77,82.6 C5.77,82.6 4.78,84.29 3.87,88.08 C2.9,92.17 2.91,94.06 2.91,94.06 Z" fill="#D5CCC2"/>
  <path d="M32,76.59 C32.22,78.75 34.61,78.7 41.44,78.7 C46.89,78.7 101.84,79.21 103.15,78.63 C103.79,78.35 104.67,77.16 105.76,75.58 C107.4,73.22 108.16,72.1 108.01,71.22 C107.72,69.5 98.79,58.23 93.2,54.89 C89.33,52.58 81,52.57 74.11,52.49 C67.87,52.42 56.03,52.27 50.37,55.9 C41.94,61.31 31.71,73.76 32,76.59 Z" fill="#546D81"/>
  <path d="M39.41,74.42 C39.85,74.97 48.54,74.81 56.62,74.78 C64.89,74.75 72.67,75.15 72.93,74.78 C73.05,74.61 73.46,57.09 73.12,56.78 C72.87,56.55 70.73,56.71 68.01,56.74 C63.47,56.79 56.86,57.5 52.7,59.83 C45.55,63.82 38.54,73.33 39.41,74.42 Z" fill="#AFE3FB"/>
  <path d="M78.1,57.1 C78.03,57.23 77.9,74.92 78.01,74.99 C78.59,75.35 100.74,75.07 100.96,74.78 C101.18,74.49 103.57,72.17 103.5,71.59 C103.43,71.01 95.96,61.78 90.83,58.65 C88.58,57.26 78.22,56.9 78.1,57.1 Z" fill="#AFE3FB"/>
  <path d="M37.25,81.01 C37.9,82.73 41.35,83.48 43.57,83.28 C46.85,82.98 48.82,81.07 49.17,77.14 C49.58,72.63 47.52,70.56 46.09,70.29 C44.57,70 37.19,77.85 37.19,77.85 C37.19,77.85 36.71,79.58 37.25,81.01 Z" fill="#AF0F21"/>
  <path d="M41.96,80.05 C44.39,79.79 46.13,77.55 46.97,75.76 C47.8,73.97 48.42,71.27 46.55,70.45 C44.23,69.44 42.14,70.63 40.71,72.24 C39.45,73.66 37.01,76.89 37.19,77.84 C37.37,78.8 38.62,80.41 41.96,80.05 Z" fill="#F92612"/>
  <path d="M17.81,110.37 C17.9,115.89 22.3,123.83 31.88,123.89 C41.46,123.95 46.43,116.61 46.13,109.09 C45.82,101.45 39.88,96.05 31.33,96.29 C23.33,96.53 17.69,102.73 17.81,110.37 Z" fill="#4E433D"/>
  <path d="M24.48,109.91 C24.53,112.82 26.89,117.01 32.04,117.04 C37.19,117.07 39.68,113.42 39.52,109.46 C39.35,105.43 36.06,102.43 31.74,102.49 C27.44,102.56 24.41,105.88 24.48,109.91 Z" fill="#C8C8C8"/>
  <path d="M88.53,110.83 C88.62,116.31 92.92,124.19 102.3,124.25 C111.68,124.31 116.54,117.03 116.25,109.57 C115.95,101.98 110.14,96.63 101.77,96.87 C93.94,97.1 88.41,103.25 88.53,110.83 Z" fill="#4E433D"/>
  <path d="M94.79,110.4 C94.84,113.31 97.2,117.5 102.35,117.53 C107.5,117.56 109.99,113.91 109.83,109.95 C109.66,105.92 106.37,102.92 102.05,102.98 C97.76,103.05 94.73,106.37 94.79,110.4 Z" fill="#C8C8C8"/>
  <path d="M121.26,76.17 C120.97,76.58 115.95,80.72 115.95,81.36 C115.95,82 121.67,90.27 121.67,90.27 L123.01,91.08 C123.01,91.08 123.65,80.6 123.65,80.37 C123.65,80.16 121.26,76.17 121.26,76.17 Z" fill="#FFFEFF"/>
  <path d="M124.27,93.63 C124.27,93.63 124.74,86.1 124.68,82.03 C124.62,77.6 123.36,74.35 123.36,74.35 L121.24,76.2 C121.24,76.2 121.96,80.12 121.96,82.69 C121.96,85.26 121.67,90.27 121.67,90.27 L124.27,93.63 Z" fill="#D5CCC2"/>
</svg>
